X:279
T: KATHRINCHEN TRAU NUR NICHT
N: E1423
O: Europa, Mitteleuropa, Deutschland, Lahn - Gegend
R: Staende -, Soldaten - Lied, Liebe
M: 4/4
L: 1/8
K: G
D2 | G3AB2c2 | d4z2
e2 | d3Bc2d2 | B4z2
d2 | B2d2e3d | e2d2z2
cB | A2e2d3e | d2B2z2
e2 | d2d2B2e2 | d2d2B2

@@@ Tune index: 4963
